resources/haticons/SVG/pause_presentation.svg

<!-- Generated by IcoMoon.io -->
<svg version="1.1" xmlns="http://www.w3.org/2000/svg" width="24" height="24" viewBox="0 0 24 24">
<title>pause_presentation</title>
<path d="M12.984 8.016h2.016v7.969h-2.016v-7.969zM9 8.016h2.016v7.969h-2.016v-7.969zM21 3q0.797 0 1.406 0.609t0.609 1.406v13.969q0 0.797-0.609 1.406t-1.406 0.609h-18q-0.797 0-1.406-0.609t-0.609-1.406v-13.969q0-0.797 0.609-1.406t1.406-0.609h18zM21 19.078v-14.063h-18v14.063h18z"></path>
</svg>

<svg xmlns="http://www.w3.org/2000/svg" width="24" height="24"><path d="M12.984 8.016H15v7.969h-2.016V8.016zM9 8.016h2.016v7.969H9V8.016zM21 3q.797 0 1.406.609t.609 1.406v13.969q0 .797-.609 1.406T21 20.999H3q-.797 0-1.406-.609t-.609-1.406V5.015q0-.797.609-1.406T3 3h18zm0 16.078V5.015H3v14.063h18z"/></svg>
